X:1
T:Alix avoit aux dens
T:Alix avoit aux dens
T:Jean de Castro
T:Source : Livre de chansons à 3 parties---Paris---A.le Roy & R.Ballard---1575. Editor : André Vierendeels (28/09/15).
T:Notes : Original clefs : G2, C3, C3 Editorial accidentals above the staff
C:Jean de Castro
%%score [ 1 2 3 ]
L:1/8
Q:1/4=104
M:2/2
K:F
V:1 treble nm="Superius" snm="S"
V:2 treble nm="Altus" snm="A"
V:3 treble-8 nm="Tenor" snm="T"
V:1
 z8 | c4 A2 G2 | F4 A4 | G3 G A2 B2 | c4 c2 c2 | B3 B A2 F2 | z2 c2 A2 G2 | F4 c4 | f2 f2 f2 e2 | %9
w: |A- lix a-|voit aux|dens la mal- le-|ra- ge, la|mal- le- ra- ge,|A- lix a-|voit aux|dens la mal- le-|
 d4 A4 | z2 d2 d2 c2 | B3 B A2 F2 | z8 | z2 F2 A2 B2 | c2 f2 e2 c2 | d3 c =B4 | c4 z4 | z4 z2 f2 | %18
w: ra- ge,|aux dens la|mal- le- ra- ge,||A- lix a-|voit aux dens la|mal- le- ra-|ge,|et|
 e2 d2 c4 | z2 c2 B2 A2 | G4 z2 c2- | c2 B4 A2 | G2 A4 F2 | G2 F4 E2 | F4 z2 c2- | c2 d4 =B2 | %26
w: ne pou- voit,|et ne pou-|voit, et|_ ne pou-|voit ce grant|mal plus souf-|frir, son|a a- my|
 ^c4 z2 f2- | f2 e4 d2- |"^-natural" d2 cB c4 | F2 F2 B2 A2 | B2 c2 c2 BA | G2 F2 G4 | A4 z4 | %33
w: vint, son|_ a- my|_ _ _ _|vint, qui en peu|de lan- gua- * *||ge,|
 z dcc B2 B2 | A2 A2 G2 G2 | FGAB c4 | d2 dd c2 c2 | B2 A2 G2 G2 | F4 z4 | z8 | z2 c2 d2 f2 | %41
w: in- con- ti- nent la|pro- mit de gue-|rir, _ _ _ _|in- con- ti- nent la|pro- mit de gue-|rir,||di- sant: je|
 e2 d2 c2 B2 | A2 G2 F4 | z8 | c4 d2 f2 | e2 d2 c2 d2- | d2 c4 B2 | c2 z2 z4 | c2 BG F2 F2 | %49
w: scay tout le mal|que tu *||di- sant: je|scay tout le mal|_ que tu|sens,|ra- ge d'a- mour pas-|
 B4 z2 A2 | G2 F2 F2 E2 | F8 | c2 BG A2 c2 | B2 A2 G2 G2 | !fermata!A8 |] %55
w: se, pas-|se le mal de|dens,|ra- ge d'a- mour pas-|se le mal de|dens.|
V:2
 c4 A2 G2 | F6 C2 | D4 F4 | E3 E F2 G2 | A4 G4 | z2 G2 F2 D2 | E4 z2 c2 | A6 G2 | F4 G4- | %9
w: A- lix a-|voit aux|dens,- aux|dens la mal- le-|ra- ge,|A- lix a-|voit, A-|lix a-|voit aux|
 G2 F4 E2 | D2 D2 E4 | G4 z2 D2 | E2 F2 G2 G2 | A4 F4 | G2 D2 G4- | G2 FE D4 | C2 G4 F2 | %17
w: _ dens la|mal- le- ra-|ge, A-|lix a- voit aux|dens la|mal- le- ra-||ge, et ne|
 E2 D2 z2 A2 | G2 F2 G2 A2- | A2 G4 F2- | F2 E2 D2 C2 | z2 D2 F4 | E4 z2 A2 | B2 A2 G2 G2 | A4 A4 | %25
w: pou- voit, et|ne pou- voit ce|_ grant mal|_ plus souf- frir,|ce grant|mal, ce|grant mal plus souf-|frir, son|
 F4 G4 | A4 A4- | A2 G4 F2 | E8 | z2 D2 G2 F2 | F2 G2 A2 GF | E2 F4 E2 | FccB A2 G2 | G2 C2 D2 E2 | %34
w: a- my|vint, son|_ a- my|vint,|qui en peu|de lan- gua- * *||ge, in- con- ti- nent la|pro- mit de gue-|
 F4 E2 EE | D2 F2 G2 A2 | B2 G2 A4 | z2 F4 E2 | F2 F2 G2 B2 | A2 G2 F2 E2 | F2 A2 G2 F2 | %41
w: rir, in- con- ti-|nent la pro- mit|de gue- rir,|de gue-|rir, di- sant: je|scay tout- le mal|que tu sens, di-|
 G2 B2 A2 G2 | F2 E2 D2 D2 | C2 F2 G2 B2 | A4 z2 F2 | G2 B2 A2 G2 | F2 E2 F2 D2 | EEFG A2 F2 | %48
w: sant: je scay tout|le mal que tu|sens, di- sant: je|scay, di-|sant: je scay tout|le mal que tu|sens, ra- ge d'a- mour pas-|
 G4 z2 D2 | D3 D F2 F2 | E2 F2 G2 G2 | A8 | z AGD F2 E2 | G2 F2 F2 E2 | !fermata!F8 |] %55
w: se, ra-|ge d'a- mour pas-|se le mal de|dens,|ra- ge d'a- mour pas-|se le mal de|dens.|
V:3
 z8 | z8 | z8 | c4 A2 G2 | F4 c4 | G3 G A2 B2 | c4 c4 | f2 f2 f2 e2 | d4 c4 | z2 d2 d2 c2 | B4 A4 | %11
w: |||A- lix a-|voit aux|dens,- A- lix a-|voit aux|dens la mal- le-|ra- ge,|la mal- le-|ra- ge,|
 z2 G2 A2 B2 | c4 c4 | f6 d2 | c2 B2 c4 | G8 | z2 c2 B2 A2 | G4 F4 | c2 d2 e2 f2 | c4 z4 | %20
w: A- lix a-|voit aux|dens le|mal- le- ra-|ge,|et ne pou-|voit ce|grant mal plus souf-|frir,|
 z2 c2 B2 A2 | G4 F4 | c4 d4 | B4 c4 | F8 | z8 | z4 f4 | c4 d4 | A4 A4 | B4 G2 d2- | d2 e2 f4 | %31
w: et ne pou-|voit ce|grant mal|plus souf-|frir,||son|a- my|vint, qui|en peu de|_ lan- gua-|
 c8 | f2 ed c2 c2 | B2 A2 G2 G2 | FGAB c4 | f2 dd c2 c2 | B4 A4 | G2 F2 c2 c2 | d2 f2 e2 d2 | %39
w: ge,|in- con- ti- nent la|pro- mit de gue-|rir, in- con- ti- nent,|in- con- ti- nent la|pro- mit|de gue- rir, di-|sant: je scay tout|
 c2 B2 A2 G2 | F4 z4 | z8 | z2 c2 d2 f2 | e2 d2 c2 B2 | f2 F2 B4 | z8 | z8 | c2 BG F2 F2 | %48
w: le mal que tu|sens,||di- sant: je|scay tout le mal|que tu sens,|||ra- ge d'a- mour pas-|
 c2 G2 B4- | B4 F4 | c6 c2 | F8 | z FGG d2 c2 | G2 A2 B2 c2 | F8 |] %55
w: se le mal,|_ le|mal de|dens,|ra- ge d'a- mour pas-|se le mal de|dens.|

